X:35
T:Down the Broom
S:Trad, arr. Paddy O'Brien
R:reel
Q:350
Z: Phil Taylor <aar09:pop.dial.pipex.com> abc-standard 2001-04-02
M:C|
%m: ~n2 = o/4n/m/4n % Clare fiddle roll expanded
K:ADor
EAAGB/4A/G/4A Bd | ega/4g/f/4g egdc | BGGF GAGE | E/4D/C/4DB,D GABG |
EAAG B/4A/G/4A Bd | ega/4g/f/4g egdg | ega/4g/f/4g dgba | gedB BAA2 :|
b/4a/g/4aea agea | agbg agef | a/4g/f/4gdg Bgdg | gfga gede |
b/4a/g/4a ea agea | agbg ageg | dga/4g/f/4g dgba | gedB BA A2 :|
